data/icons/hicolor/scalable/apps/com.github.mdtoepub.svg

<?xml version="1.0" encoding="UTF-8" standalone="no"?>
<svg
   viewBox="0 0 128 128"
   width="128"
   height="128"
   version="1.1"
   id="svg27"
   sodipodi:docname="com.github.mdtoepub.svg"
   inkscape:version="1.4.4 (dcaf3e7d9e, 2026-05-05)"
   xmlns:inkscape="http://www.inkscape.org/namespaces/inkscape"
   xmlns:sodipodi="http://sodipodi.sourceforge.net/DTD/sodipodi-0.dtd"
   xmlns="http://www.w3.org/2000/svg"
   xmlns:svg="http://www.w3.org/2000/svg">
  <sodipodi:namedview
     id="namedview27"
     pagecolor="#ffffff"
     bordercolor="#000000"
     borderopacity="0.25"
     inkscape:showpageshadow="2"
     inkscape:pageopacity="0.0"
     inkscape:pagecheckerboard="0"
     inkscape:deskcolor="#d1d1d1"
     inkscape:zoom="6.296875"
     inkscape:cx="63.920596"
     inkscape:cy="64"
     inkscape:window-width="1920"
     inkscape:window-height="1011"
     inkscape:window-x="0"
     inkscape:window-y="0"
     inkscape:window-maximized="1"
     inkscape:current-layer="svg27" />
  <defs
     id="defs10">
    <linearGradient
       id="bg"
       x1="0"
       y1="0"
       x2="1"
       y2="1">
      <stop
         offset="0%"
         stop-color="#34495e"
         id="stop1" />
      <stop
         offset="100%"
         stop-color="#2c3e50"
         id="stop2" />
    </linearGradient>
    <linearGradient
       id="pageLeft"
       x1="-35.141015"
       y1="-17.298182"
       x2="-1.2368473"
       y2="-17.298182"
       gradientTransform="scale(0.68723115,1.4551145)"
       gradientUnits="userSpaceOnUse">
      <stop
         offset="0%"
         stop-color="#faf8f3"
         id="stop3" />
      <stop
         offset="100%"
         stop-color="#ece4d3"
         id="stop4" />
    </linearGradient>
    <linearGradient
       id="pageRight"
       x1="1.2368473"
       y1="-17.298182"
       x2="35.141015"
       y2="-17.298182"
       gradientTransform="scale(0.68723115,1.4551145)"
       gradientUnits="userSpaceOnUse">
      <stop
         offset="0%"
         stop-color="#ece4d3"
         id="stop5" />
      <stop
         offset="100%"
         stop-color="#faf8f3"
         id="stop6" />
    </linearGradient>
    <linearGradient
       id="spine"
       x1="-6.0621778"
       y1="-6.1858957"
       x2="6.0621778"
       y2="-6.1858957"
       gradientTransform="scale(0.24743583,4.0414519)"
       gradientUnits="userSpaceOnUse">
      <stop
         offset="0%"
         stop-color="#8b4513"
         id="stop7" />
      <stop
         offset="30%"
         stop-color="#a0522d"
         id="stop8" />
      <stop
         offset="70%"
         stop-color="#6b3410"
         id="stop9" />
      <stop
         offset="100%"
         stop-color="#4a2508"
         id="stop10" />
    </linearGradient>
    <filter
       id="shadow"
       x="0"
       y="0"
       width="1"
       height="1">
      <feDropShadow
         dx="0"
         dy="2"
         stdDeviation="2"
         flood-color="#000"
         flood-opacity="0.3" />
    </filter>
  </defs>
  <!-- Background rounded rect -->
  <rect
     x="6"
     y="6"
     width="116"
     height="116"
     rx="22"
     fill="url(#bg)"
     filter="url(#shadow)"
     id="rect10" />
  <!-- Book -->
  <g
     transform="matrix(1.3570123,0,0,1.3570123,64,64)"
     id="g27">
    <!-- Shadow under book -->
    <ellipse
       cx="0"
       cy="28"
       rx="32"
       ry="4"
       fill="#000000"
       opacity="0.15"
       id="ellipse10" />
    <!-- Book covers (spread open slightly) -->
    <!-- Left cover -->
    <path
       d="m -32,-24 q 24,-4 32,0 v 48 q -8,4 -32,0 z"
       fill="#8b4513"
       stroke="#4a2508"
       stroke-width="0.5"
       id="path10" />
    <!-- Right cover -->
    <path
       d="m 0,-24 q 8,-4 32,0 V 24 Q 8,28 0,24 Z"
       fill="#a0522d"
       stroke="#4a2508"
       stroke-width="0.5"
       id="path11" />
    <!-- Left pages -->
    <rect
       x="-28"
       y="-22"
       width="2"
       height="44"
       rx="0.30000001"
       fill="#d4c5a9"
       id="rect11" />
    <rect
       x="-26"
       y="-22"
       width="2"
       height="44"
       rx="0.30000001"
       fill="#ddd0b5"
       id="rect12" />
    <path
       d="m -24,-22 23,-3 v 49 l -23,-2 z"
       fill="url(#pageLeft)"
       stroke="#ccc0a5"
       stroke-width="0.3"
       id="path12"
       style="fill:url(#pageLeft)" />
    <!-- Right pages -->
    <path
       d="m 1,-25 23,3 V 22 L 1,24 Z"
       fill="url(#pageRight)"
       stroke="#ccc0a5"
       stroke-width="0.3"
       id="path13"
       style="fill:url(#pageRight)" />
    <rect
       x="24"
       y="-22"
       width="2"
       height="44"
       rx="0.30000001"
       fill="#ddd0b5"
       id="rect13" />
    <rect
       x="26"
       y="-22"
       width="2"
       height="44"
       rx="0.30000001"
       fill="#d4c5a9"
       id="rect14" />
    <!-- Spine -->
    <rect
       x="-1.5"
       y="-25"
       width="3"
       height="49"
       rx="0.5"
       fill="url(#spine)"
       id="rect15"
       style="fill:url(#spine)" />
    <!-- Left page text lines -->
    <rect
       x="-22"
       y="-16"
       width="14"
       height="1.5"
       rx="0.5"
       fill="#555555"
       id="rect16" />
    <rect
       x="-22"
       y="-12"
       width="18"
       height="1.5"
       rx="0.5"
       fill="#555555"
       id="rect17" />
    <rect
       x="-22"
       y="-8"
       width="16"
       height="1.5"
       rx="0.5"
       fill="#555555"
       id="rect18" />
    <rect
       x="-22"
       y="-4"
       width="19"
       height="1.5"
       rx="0.5"
       fill="#555555"
       id="rect19" />
    <rect
       x="-22"
       y="0"
       width="15"
       height="1.5"
       rx="0.5"
       fill="#555555"
       id="rect20" />
    <!-- Left page hash marks (markdown) -->
    <text
       x="-20"
       y="-15"
       font-size="5px"
       font-family="monospace"
       fill="#777777"
       id="text20">#</text>
    <text
       x="-20"
       y="-7"
       font-size="4px"
       font-family="monospace"
       fill="#999999"
       id="text21">**</text>
    <!-- Right page text lines -->
    <rect
       x="6"
       y="-16"
       width="14"
       height="1.5"
       rx="0.5"
       fill="#555555"
       id="rect21" />
    <rect
       x="6"
       y="-12"
       width="18"
       height="1.5"
       rx="0.5"
       fill="#555555"
       id="rect22" />
    <rect
       x="6"
       y="-8"
       width="16"
       height="1.5"
       rx="0.5"
       fill="#555555"
       id="rect23" />
    <rect
       x="6"
       y="-4"
       width="14"
       height="1.5"
       rx="0.5"
       fill="#555555"
       id="rect24" />
    <rect
       x="6"
       y="0"
       width="17"
       height="1.5"
       rx="0.5"
       fill="#555555"
       id="rect25" />
    <rect
       x="6"
       y="4"
       width="15"
       height="1.5"
       rx="0.5"
       fill="#555555"
       id="rect26" />
    <!-- Bookmark ribbon -->
    <path
       d="m -0.5,-25 h 1 v 5 h -1 z"
       fill="#e74c3c"
       id="path26" />
    <path
       d="M -0.5,-25 -2,-32 h 4 l -1.5,7 z"
       fill="#c0392b"
       id="path27" />
  </g>
  <!-- Title text -->
</svg>

<svg xmlns="http://www.w3.org/2000/svg" viewBox="0 0 128 128" width="128" height="128">
  <defs>
    <linearGradient id="bg" x1="0" y1="0" x2="1" y2="1">
      <stop offset="0%" stop-color="#34495e"/>
      <stop offset="100%" stop-color="#2c3e50"/>
    </linearGradient>
    <linearGradient id="pageLeft" x1="0" y1="0" x2="1" y2="0">
      <stop offset="0%" stop-color="#faf8f3"/>
      <stop offset="100%" stop-color="#ece4d3"/>
    </linearGradient>
    <linearGradient id="pageRight" x1="0" y1="0" x2="1" y2="0">
      <stop offset="0%" stop-color="#ece4d3"/>
      <stop offset="100%" stop-color="#faf8f3"/>
    </linearGradient>
    <linearGradient id="spine" x1="0" y1="0" x2="1" y2="0">
      <stop offset="0%" stop-color="#8b4513"/>
      <stop offset="30%" stop-color="#a0522d"/>
      <stop offset="70%" stop-color="#6b3410"/>
      <stop offset="100%" stop-color="#4a2508"/>
    </linearGradient>
    <filter id="shadow" x="-5%" y="-5%" width="115%" height="115%">
      <feDropShadow dx="0" dy="2" stdDeviation="2" flood-color="#000" flood-opacity="0.3"/>
    </filter>
  </defs>

  <!-- Background rounded rect -->
  <rect x="6" y="6" width="116" height="116" rx="22" fill="url(#bg)" filter="url(#shadow)"/>

  <!-- Book -->
  <g transform="translate(64,62)">
    <!-- Shadow under book -->
    <ellipse cx="0" cy="28" rx="32" ry="4" fill="#000" opacity="0.15"/>

    <!-- Book covers (spread open slightly) -->
    <!-- Left cover -->
    <path d="M-32,-24 Q-8,-28 0,-24 L0,24 Q-8,28 -32,24 Z"
          fill="#8b4513" stroke="#4a2508" stroke-width="0.5"/>
    <!-- Right cover -->
    <path d="M0,-24 Q8,-28 32,-24 L32,24 Q8,28 0,24 Z"
          fill="#a0522d" stroke="#4a2508" stroke-width="0.5"/>

    <!-- Left pages -->
    <rect x="-28" y="-22" width="2" height="44" rx="0.3" fill="#d4c5a9"/>
    <rect x="-26" y="-22" width="2" height="44" rx="0.3" fill="#ddd0b5"/>
    <path d="M-24,-22 L-1,-25 L-1,24 L-24,22 Z" fill="url(#pageLeft)" stroke="#ccc0a5" stroke-width="0.3"/>

    <!-- Right pages -->
    <path d="M1,-25 L24,-22 L24,22 L1,24 Z" fill="url(#pageRight)" stroke="#ccc0a5" stroke-width="0.3"/>
    <rect x="24" y="-22" width="2" height="44" rx="0.3" fill="#ddd0b5"/>
    <rect x="26" y="-22" width="2" height="44" rx="0.3" fill="#d4c5a9"/>

    <!-- Spine -->
    <rect x="-1.5" y="-25" width="3" height="49" rx="0.5" fill="url(#spine)"/>

    <!-- Left page text lines -->
    <rect x="-22" y="-16" width="14" height="1.5" rx="0.5" fill="#555"/>
    <rect x="-22" y="-12" width="18" height="1.5" rx="0.5" fill="#555"/>
    <rect x="-22" y="-8" width="16" height="1.5" rx="0.5" fill="#555"/>
    <rect x="-22" y="-4" width="19" height="1.5" rx="0.5" fill="#555"/>
    <rect x="-22" y="0" width="15" height="1.5" rx="0.5" fill="#555"/>

    <!-- Left page hash marks (markdown) -->
    <text x="-20" y="-15" font-size="5" font-family="monospace" fill="#777">#</text>
    <text x="-20" y="-7" font-size="4" font-family="monospace" fill="#999">**</text>

    <!-- Right page text lines -->
    <rect x="6" y="-16" width="14" height="1.5" rx="0.5" fill="#555"/>
    <rect x="6" y="-12" width="18" height="1.5" rx="0.5" fill="#555"/>
    <rect x="6" y="-8" width="16" height="1.5" rx="0.5" fill="#555"/>
    <rect x="6" y="-4" width="14" height="1.5" rx="0.5" fill="#555"/>
    <rect x="6" y="0" width="17" height="1.5" rx="0.5" fill="#555"/>
    <rect x="6" y="4" width="15" height="1.5" rx="0.5" fill="#555"/>

    <!-- Bookmark ribbon -->
    <path d="M-0.5,-25 L0.5,-25 L0.5,-20 L-0.5,-20 Z" fill="#e74c3c"/>
    <path d="M-0.5,-25 L-2,-32 L2,-32 L0.5,-25 Z" fill="#c0392b"/>
  </g>

  <!-- Title text -->
  <text x="64" y="119" text-anchor="middle" font-size="11" font-family="sans-serif" font-weight="bold" fill="#ecf0f1" letter-spacing="1">
    md2epub
  </text>
</svg>
